svgs/regular/face-lying.svg

<svg xmlns="http://www.w3.org/2000/svg" viewBox="0 0 512 512"><!--! Font Awesome Pro 6.5.1 by @fontawesome - https://fontawesome.com License - https://fontawesome.com/license (Commercial License) Copyright 2023 Fonticons, Inc. --><path d="M431.3 368H352c-13.3 0-24-10.7-24-24s10.7-24 24-24h88c13.3 0 24-10.7 24-24s-10.7-24-24-24H288c-13.3 0-24-10.7-24-24s10.7-24 24-24H440c7.7 0 15.1 1.2 22.1 3.4C448.1 126.1 361.2 48 256 48C141.1 48 48 141.1 48 256s93.1 208 208 208c73.6 0 138.3-38.3 175.3-96zm67.4-30.3C464.6 439 368.8 512 256 512C114.6 512 0 397.4 0 256S114.6 0 256 0S512 114.6 512 256c0 8.8-.4 17.6-1.3 26.2c.9 4.5 1.3 9.1 1.3 13.8c0 15.6-4.9 30-13.3 41.7zM144.4 176a32 32 0 1 1 64 0 32 32 0 1 1 -64 0zm160 0a32 32 0 1 1 64 0 32 32 0 1 1 -64 0zM195.2 390.4c-8 10.6-23 12.7-33.6 4.8s-12.7-23-4.8-33.6C175.7 336.4 206 320 240 320c14.7 0 28.8 3.1 41.6 8.7c12.1 5.3 17.7 19.5 12.4 31.6s-19.5 17.7-31.6 12.4c-6.8-3-14.4-4.6-22.4-4.6c-18.3 0-34.6 8.8-44.8 22.4z"/></svg>

<svg xmlns="http://www.w3.org/2000/svg" viewBox="0 0 512 512"><!--! Font Awesome Pro 6.1.1 by @fontawesome - https://fontawesome.com License - https://fontawesome.com/license (Commercial License) Copyright 2022 Fonticons, Inc. --><path d="M208.4 176C208.4 193.7 194 208 176.4 208C158.7 208 144.4 193.7 144.4 176C144.4 158.3 158.7 144 176.4 144C194 144 208.4 158.3 208.4 176zM368.4 176C368.4 193.7 354 208 336.4 208C318.7 208 304.4 193.7 304.4 176C304.4 158.3 318.7 144 336.4 144C354 144 368.4 158.3 368.4 176zM161.6 395.2C150.1 387.2 148.9 372.2 156.8 361.6C175.7 336.4 205.1 320 240 320C254.7 320 268.8 323.1 281.6 328.7C293.8 333.1 299.3 348.1 293.1 360.3C288.7 372.4 274.5 377.1 262.4 372.6C255.6 369.7 248 368 240 368C221.7 368 205.4 376.8 195.2 390.4C187.2 401 172.2 403.1 161.6 395.2L161.6 395.2zM498.7 337.7C464.6 439 368.8 512 256 512C114.6 512 0 397.4 0 256C0 114.6 114.6 0 256 0C397.4 0 512 114.6 512 256C512 264.8 511.6 273.6 510.7 282.2C511.5 286.7 512 291.3 512 296C512 311.6 507.1 325.1 498.7 337.7zM352 368C338.7 368 328 357.3 328 344C328 330.7 338.7 320 352 320H440C453.3 320 464 309.3 464 296C464 282.7 453.3 272 440 272H288C274.7 272 264 261.3 264 248C264 234.7 274.7 224 288 224H440C447.7 224 455.1 225.2 462.1 227.4C448.1 126.1 361.2 48 256 48C141.1 48 48 141.1 48 256C48 370.9 141.1 464 256 464C329.6 464 394.3 425.7 431.3 368H352z"/></svg>
